X: 637
M:3/2
L:1/8
K:Cm
EGBe dcBAG4 | cBAG AFGA D4 | B,DFA GFED EcBA | GEDE B,EDFE4 ||
gfed cBAGA4 | fedc BAGFE4 | edcB AGFE DcBA | GEDE B,EDFE4 ||
EDCB, CA,G,A, CA,G,A, | FEDC DB,=A,B, DB,=A,B, | GFED EGFE DcBA | GEDE B,EDFE4 ||
bgaf gefd f2d2 | BGAF GEFC D4 | EGFA GBAc Bedc | BAGF GEFDE4 ||

